X:1
T:Mille regretz
T:Jean de Castro
T:Source : La fleur des chansons à 3---Louvain---P.Phalèse---1574. Editor : André Vierendeels (11/08/18) Notes : Original clefs : C1, C3, C4 Original note values have been halved Editorial accidentals above the staff
T:Mille regretz
T:©
T:©
T:©
C:Jean de Castro
Z:©
%%score [ 1 [ 2 3 ] ]
L:1/8
Q:1/4=120
M:2/2
K:C
V:1 treble nm="Soprano" snm="S"
V:2 treble-8 nm="Tenor 1" snm="T 1"
V:3 treble-8 nm="Tenor 2" snm="T 2"
V:1
 E8- | E8 | A4 A4 | G8- | G4 z4 | c4 c2 c2 | B2 B2 A4- | A4 z2 G2 | G2 G2 F2 F2 | E2 c2 c2 c2 | %10
w: Mil-||le re-|gretz|_|de vous a-|ban- don- ner,|_ de|vous a- ban- don-|ner, de vous a-|
 B2 AG A2 G2- | G2 ^F2 GG E2 | C2 c4 B2- | B2 B2 c2 B2- | Bc A2 ^G2 G2 | A4 ^F4 | G6 E2- | %17
w: ban- * * * *|* don- ner, et des-|lon- ger vo-|* stre fa- ce'a-|* mou- reu- se, i'ay|si grand|dueil et|
 E2 ^F4 G2 | z2 c4 _B2- | B2 A4 G2 | ^F4 G2 E2- | E2 D2 E2 z E | G2 G2 D4 | z2 A2 c2 c2 | %24
w: _ pai- ne,|dueil et|_ pai- ne|dou- lou- reu-|* * se, qu'on|me ver- ra,|qu'on me ver-|
 G2 c3 B z d | cBcA BGAG | FFEG GGEA | ^G2 z2 z4 |] %28
w: ra en brief, en|brief mes iours fi- ner, en brief mes|iours fi- ner, en brief mes iours fi-|ner.|
V:2
 z2 A3 Bcd | ef g2 c3 B | AG A3 Bcd | e c2 B c2 c2 | e2 z g g2 g2 | fe e3 def | g4 z2 f2 | %7
w: Mil- * * *|* * * le _|_ _ _ _ _ _|* * * * re-|gretz, de vous a-|ban- don- ner, _ _ _|_ de|
 f2 f2 e2 e2 | d2 z d d2 d2 | c3 d e2 f2 | g2 c2 c2 c2 | B2 A2 GG g2 | e2 cd efgf | e2 d2 fe g2- | %14
w: vous a- ban- don-|ner, de vous a-|ban- * * don-|ner, de vous a-|ban- don- ner, et des-|lon- ger _ _ _ _ _|_ vo- stre fa- ce'a-|
 ge d2 e4 | z2 ^c2 d4- | d2 d2 e2 A2 | ^c4 d4 | g3 g f4 | e4 d4- | d2 c2 B3 c | A2 A2 z B2 c- | %22
w: * mou- reu- se,|i'ay si|_ grand dueil et|pai- ne|dou- lou- reu-|se, dou-|* lou- reu- *|* se, qu'on me|
 cc G2 z2 B2 | d2 d2 ABcd | ef g2 z2 z g | agef d2 z G | AB c2 z dcA | B2 z2 z4 |] %28
w: _ ver- ra, qu'on|me ver- ra _ _ _|_ _ _ en|brief mes iours fi- ner, en|brief mes iours, mes iours fi-|ner.|
V:3
 A3 B cdef | g2 e3 dcB | AGFG ABcd | e2 B2 E2 z e | e2 e2 d2 d2 | A3 G ABcB/A/ | GABc d2 D2 | %7
w: Mil- * * * * *|* le _ _ _|_ _ _ _ _ _ _ _|* re- gretz, de|vous a- ban- don-|ner, _ _ _ _ _ _|_ _ _ _ _ de|
 DEFG AB c2 | G4 D2 D2 | A2 z A A2 A2 | G2 FE F2 C2 | D4 z2 G2 | g2 e2 cdef | g2 G2 A2 E2 | %14
w: vous _ _ _ _ _ _|a- ban- don-|ner, de vous a-|ban- * * * don-|ner, et|des- lon- ger _ _ _|_ vo- stre fa-|
 GA F2 E4 | z4 B4- | B4 c4 | A4 B4 | e4 d4 |"^b" c4 B4- | B2 A2 G3 A | F4 E4 | z2 E2 G2 G2 | %23
w: ce'a- mou- reu- se,|i'ay|_ si|grand dueil|et pai-|ne dou-|* lou- reu- *|* se,|qu'on me ver-|
 D4 z2 A2 | c2 c2 G4 | z4 G2 FE | FDCc BGAF | E2 z2 z4 |] %28
w: ra, qu'on|mr ver- ra|en brief mes|iours fi- ner, en brief mes iours fi-|ner.|

